X:1176
T:The Girl Who Broke My Heart
M:C|
L:1/8
R:Reel
B:O'Neill's 1176
N:Collected by F. O'Neill
Z:Transcribed by Trish O'Neil
K:Gm
dc|BGFD EC-~C2|DGAGF GABc|defd cAGF|DEGFEF2dc|
BGFD EC-~C2|DGAGF GABc|defd cAGF|DGAGFG2||
DF|G2Bd gdBG|F2Ac fcAF|G2Bd gdBd|TcBcd cAFA|
G2Bd|gdBG|F2Ac  fcdB|GABd cAGF|DGAGFG2||
